img/icon/fb.svg

<svg width="18" height="18" viewBox="0 0 18 18" fill="none" xmlns="http://www.w3.org/2000/svg">
<path fill-rule="evenodd" clip-rule="evenodd" d="M9.614 18H0.994C0.86343 18.0001 0.734114 17.9745 0.613457 17.9246C0.4928 17.8747 0.383171 17.8015 0.290843 17.7092C0.198515 17.6168 0.125303 17.5072 0.0753963 17.3865C0.0254898 17.2659 -0.000131054 17.1366 5.04078e-07 17.006V0.994C5.04078e-07 0.444 0.445 0 0.994 0H17.007C17.555 0 18 0.445 18 0.994V17.006C18.0001 17.1365 17.9745 17.2657 17.9247 17.3863C17.8749 17.5069 17.8017 17.6165 17.7095 17.7088C17.6173 17.8011 17.5078 17.8744 17.3872 17.9243C17.2667 17.9743 17.1375 18 17.007 18H12.42V11.03H14.76L15.11 8.313H12.42V6.578C12.42 5.792 12.638 5.256 13.766 5.256H15.204V2.826C14.5078 2.75225 13.8081 2.71653 13.108 2.719C11.034 2.719 9.614 3.985 9.614 6.309V8.313H7.27V11.029H9.615V18H9.614Z" fill="#848E9F"/>
</svg>

<svg width="18" height="18" fill="none" xmlns="http://www.w3.org/2000/svg"><path fill-rule="evenodd" clip-rule="evenodd" d="M9.614 18H.994A.994.994 0 0 1 0 17.006V.994C0 .444.445 0 .994 0h16.013c.548 0 .993.445.993.994v16.012a.994.994 0 0 1-.993.994H12.42v-6.97h2.34l.35-2.717h-2.69V6.578c0-.786.218-1.322 1.346-1.322h1.438v-2.43a19.252 19.252 0 0 0-2.096-.107c-2.074 0-3.494 1.266-3.494 3.59v2.004H7.27v2.716h2.345V18h-.001z" fill="#848E9F"/></svg>
